icons/podhero.svg

<svg width="32" height="32" viewBox="0 0 32 32" fill="none" xmlns="http://www.w3.org/2000/svg">
<path d="M3.36667 28.6333C0.913335 26.18 0 22.18 0 16C0 9.82 0.913335 5.82 3.36667 3.36667C5.82 0.913333 9.82 0 16 0C22.18 0 26.18 0.913333 28.6333 3.36667C31.0867 5.82 32 9.82 32 16C32 22.18 31.0867 26.18 28.6333 28.6333C26.18 31.0867 22.18 32 16 32C9.82 32 5.82 31.0867 3.36667 28.6333Z" fill="#0067FF"/>
<path fill-rule="evenodd" clip-rule="evenodd" d="M16 4.90002C9.86666 4.90002 4.89999 9.87336 4.89999 16C4.89999 19.8334 6.84666 23.2134 9.79999 25.2067V16C9.79999 12.5734 12.58 9.80002 16 9.80002C19.42 9.80002 22.2 12.58 22.2 16C22.2 18.5534 20.6533 20.7467 18.4467 21.7V18.4467C18.4467 17.1 17.3467 16 16 16C14.6533 16 13.5533 17.1 13.5533 18.4467V32H18.4533V26.8267C24.7267 25.34 27.1067 19.92 27.1067 16C27.1067 9.86669 22.1333 4.90002 16.0067 4.90002H16Z" fill="white"/>
</svg>

<svg xmlns="http://www.w3.org/2000/svg" width="32" height="32" fill="none" viewBox="0 0 32 32">
  <path fill="#0067FF" d="M3.367 28.633C.913 26.18 0 22.18 0 16 0 9.82.913 5.82 3.367 3.367 5.82.913 9.82 0 16 0c6.18 0 10.18.913 12.633 3.367C31.087 5.82 32 9.82 32 16c0 6.18-.913 10.18-3.367 12.633C26.18 31.087 22.18 32 16 32c-6.18 0-10.18-.913-12.633-3.367Z"/>
  <path fill="#fff" fill-rule="evenodd" d="M16 4.9C9.867 4.9 4.9 9.873 4.9 16c0 3.833 1.947 7.213 4.9 9.207V16A6.2 6.2 0 0 1 16 9.8c3.42 0 6.2 2.78 6.2 6.2a6.211 6.211 0 0 1-3.753 5.7v-3.253C18.447 17.1 17.347 16 16 16a2.453 2.453 0 0 0-2.447 2.447V32h4.9v-5.173C24.727 25.34 27.107 19.92 27.107 16c0-6.133-4.974-11.1-11.1-11.1H16Z" clip-rule="evenodd"/>
</svg>
